korla-light/actions/symbolic/xapp-prefs-plugins-symbolic.svg

<svg clip-rule="evenodd" fill-rule="evenodd" stroke-linejoin="round" stroke-miterlimit="2" viewBox="0 0 16 16" xmlns="http://www.w3.org/2000/svg">
 <g fill="#444">
  <path d="m6.5 1c-.83 0-1.5.67-1.5 1.5v1.5h-3c-.55 0-1 .45-1 1v3h1.5c.83 0 1.5.67 1.5 1.5s-.67 1.5-1.5 1.5h-1.5v3c0 .55.45 1 1 1h3v-1.5c0-.83.67-1.5 1.5-1.5s1.5.67 1.5 1.5v1.5h3c.55 0 1-.45 1-1v-3h1.5c.83 0 1.5-.67 1.5-1.5s-.67-1.5-1.5-1.5h-1.5v-3c0-.55-.45-1-1-1h-3v-1.5c0-.83-.67-1.5-1.5-1.5z" fill-opacity=".5" fill-rule="nonzero"/>
  <path d="m6.5 1c-.83 0-1.5.67-1.5 1.5v1.5h-3c-.55 0-1 .45-1 1v3h1.5c.83 0 1.5.67 1.5 1.5s-.67 1.5-1.5 1.5h-1.5v3c0 .55.45 1 1 1h3v-1.5c0-.83.67-1.5 1.5-1.5s1.5.67 1.5 1.5v1.5h3c.55 0 1-.45 1-1v-3h1.5c.83 0 1.5-.67 1.5-1.5s-.67-1.5-1.5-1.5h-1.5v-3c0-.55-.45-1-1-1h-3v-1.5c0-.83-.67-1.5-1.5-1.5zm1.5 4c-.552 0-1-.448-1-1v-1.5c0-.277-.223-.5-.5-.5s-.5.223-.5.5v1.5c0 .552-.448 1-1 1h-3v2h.5c1.383 0 2.5 1.117 2.5 2.5s-1.117 2.5-2.5 2.5h-.5v2h2v-.5c0-1.383 1.117-2.5 2.5-2.5s2.5 1.117 2.5 2.5v.5h2v-3c0-.552.448-1 1-1h1.5c.277 0 .5-.223.5-.5s-.223-.5-.5-.5h-1.5c-.552 0-1-.448-1-1v-3z"/>
 </g>
</svg>

<svg xmlns="http://www.w3.org/2000/svg" width="16" height="16" version="1.1">
 <path style="fill:#dfdfdf" d="M 6.5,1 C 5.67,1 5,1.67 5,2.5 V 4 H 2 C 1.45,4 1,4.45 1,5 V 8 H 2.5 C 3.33,8 4,8.67 4,9.5 4,10.33 3.33,11 2.5,11 H 1 V 14 C 1,14.55 1.45,15 2,15 H 5 V 13.5 C 5,12.67 5.67,12 6.5,12 7.33,12 8,12.67 8,13.5 V 15 H 11 C 11.55,15 12,14.55 12,14 V 11 H 13.5 C 14.33,11 15,10.33 15,9.5 15,8.67 14.33,8 13.5,8 H 12 V 5 C 12,4.45 11.55,4 11,4 H 8 V 2.5 C 8,1.67 7.33,1 6.5,1 Z"/>
</svg>
